svg/u1fae0.svg

<svg viewBox="0 0 128 128" xmlns="http://www.w3.org/2000/svg" xmlns:xlink="http://www.w3.org/1999/xlink">
  <g>
    <g>
      <radialGradient id="SVGID_1_" cx="64" cy="55.0293" gradientUnits="userSpaceOnUse" r="51.6864">
        <stop offset="0.5" stop-color="#FDE030"/>
        <stop offset="0.9188" stop-color="#F7C02B"/>
        <stop offset="1" stop-color="#F4A223"/>
      </radialGradient>
      <path d="M79.23,6.71C40.06-6.28,2.19,29.66,15.96,68.34c3.09,9.95-0.34,11.7,1.36,16.28 c2.03,5.47,8.24,2.96,8.24,2.96s0.02,12.11,2.03,15.78c0.72,1.31,2.33,2.13,3.79,1.85c5.08-0.96,3.97-10.34,4.26-12.68 c0.54-4.38,3.21-2.43,4.07-1.39c0.86,1.04,1.03,2.46,1.21,3.8c0.83,8.29,4.31,13.61,12.84,10.35c0.56-0.21,2.41-0.63,2.16,0.45 c-0.22,3.03-0.4,8.86-0.27,11.9c0.13,2.99,1.12,7.16,4.9,6.23c9.13-2.53,4.48-13.83,4.9-21.32c0-6.2,7.02-5.13,7.02-0.65 c0,4.48-1.58,10.63,2.14,13.29c6.51,4.64,7.93-2.28,7.57-5.58c0,0-0.36-7.81,0.71-9.15c1.07-1.35,1.5,3.03,6.14,1.99 c6.23-1.4,5.97-8.45,6.52-11.76c0.55-3.31,2.41-6.24,3.57-2.91c1.16,3.33-0.7,8.21,0,12.05c0.7,3.84,2.19,4.96,4.88,4.72 c4.19-0.37,4.86-4.92,4.92-8.56c0.06-3.64,0.08-10.57,0.76-14.05c1.35-6.89,1.94-9.82,2.9-12.77 C120.98,43.41,106.05,15.45,79.23,6.71z" fill="url(#SVGID_1_)"/>
      <radialGradient id="SVGID_2_" cx="64.8001" cy="56.6768" gradientTransform="matrix(0.9842 0.1772 -0.17 0.9438 10.6584 -8.297)" gradientUnits="userSpaceOnUse" r="54.0921">
        <stop offset="0.5" stop-color="#FDE030"/>
        <stop offset="0.9188" stop-color="#F7C02B"/>
        <stop offset="1" stop-color="#F4A223"/>
      </radialGradient>
      <path d="M79.23,6.71C40.06-6.28,2.19,29.66,15.96,68.34c3.09,9.95-0.34,11.7,1.36,16.28 c2.03,5.47,8.24,2.96,8.24,2.96s0.02,12.11,2.03,15.78c0.72,1.31,2.33,2.13,3.79,1.85c5.08-0.96,3.97-10.34,4.26-12.68 c0.54-4.38,3.21-2.43,4.07-1.39c0.86,1.04,1.03,2.46,1.21,3.8c0.83,8.29,4.31,13.61,12.84,10.35c0.56-0.21,2.41-0.63,2.16,0.45 c-0.22,3.03-0.4,8.86-0.27,11.9c0.13,2.99,1.12,7.16,4.9,6.23c9.13-2.53,4.48-13.83,4.9-21.32c0-6.2,7.02-5.13,7.02-0.65 c0,4.48-1.58,10.63,2.14,13.29c6.51,4.64,7.93-2.28,7.57-5.58c0,0-0.36-7.81,0.71-9.15c1.07-1.35,1.5,3.03,6.14,1.99 c6.23-1.4,5.97-8.45,6.52-11.76c0.55-3.31,2.41-6.24,3.57-2.91c1.16,3.33-0.7,8.21,0,12.05c0.7,3.84,2.19,4.96,4.88,4.72 c4.19-0.37,4.86-4.92,4.92-8.56c0.06-3.64,0.08-10.57,0.76-14.05c1.35-6.89,1.94-9.82,2.9-12.77 C120.98,43.41,106.05,15.45,79.23,6.71z" fill="url(#SVGID_2_)"/>
      <radialGradient id="SVGID_3_" cx="87.6611" cy="-537.0126" gradientTransform="matrix(0.9999 6.846566e-03 -0.0189 0.8615 -10.1591 557.2983)" gradientUnits="userSpaceOnUse" r="6.7462">
        <stop offset="0" stop-color="#F7C02B"/>
        <stop offset="0.7524" stop-color="#F7C02B" stop-opacity="0"/>
      </radialGradient>
      <path d="M81.76,95.74c-0.63-5.66,2.62-8.24,5.86-8.24s6.63,0,5.86,8.24 c-0.29,3.13-2.62,5.69-5.86,5.69S82.1,98.86,81.76,95.74z" fill="url(#SVGID_3_)"/>
      <radialGradient id="SVGID_4_" cx="53.3259" cy="-179.5832" gradientTransform="matrix(0.9006 9.366775e-03 -0.017 1.1786 -29.3565 291.0061)" gradientUnits="userSpaceOnUse" r="5.5946">
        <stop offset="0" stop-color="#F7C02B"/>
        <stop offset="0.7524" stop-color="#F7C02B" stop-opacity="0"/>
      </radialGradient>
      <path d="M17.1,79.83c0.11-0.99,0.48-2.26,0.49-3.52c0.01-1.35-0.34-2.67-0.34-2.67 c0.96-1.51,2.33-2.46,3.85-2.46c2.92,0,5.28,3.48,5.28,7.78c0,4.3-2.36,7.78-5.28,7.78c-1.39,0-2.65-0.79-3.59-2.08 C17.51,84.65,16.82,82.48,17.1,79.83z" fill="url(#SVGID_4_)"/>
      <radialGradient id="SVGID_5_" cx="30.4605" cy="90.5767" gradientTransform="matrix(0.9789 0.2042 -0.5216 2.5004 47.8825 -142.1224)" gradientUnits="userSpaceOnUse" r="4.7613">
        <stop offset="0" stop-color="#F7C02B" stop-opacity="0.9706"/>
        <stop offset="0.928" stop-color="#F7C02B" stop-opacity="0"/>
      </radialGradient>
      <path d="M25.57,87.58c-0.01-1.93-0.61-8.62,2.63-8.62s4.91,2.55,5.5,7.01 c0.57,4.35,0.14,10.24-0.02,12.51c-0.34,4.72-3.03,6.65-6.33,4.32C27.34,102.8,25.62,98.67,25.57,87.58z" fill="url(#SVGID_5_)"/>
      <radialGradient id="SVGID_6_" cx="60.4735" cy="107.8734" gradientTransform="matrix(0.9999 0.0144 -0.0367 2.554 3.9615 -168.4997)" gradientUnits="userSpaceOnUse" r="5.2571">
        <stop offset="0.3068" stop-color="#F7C02B" stop-opacity="0.9706"/>
        <stop offset="1" stop-color="#F7C02B" stop-opacity="0"/>
      </radialGradient>
      <path d="M56.11,104.34c-0.01-1.93-0.17-9.88,3.07-9.88s5.04,1.09,5.63,5.55 c0.57,4.35,1.68,13.22,0.65,16.98c-1.61,5.91-7.19,4.98-8.53,2.83C55.04,116.81,56.11,104.34,56.11,104.34z" fill="url(#SVGID_6_)"/>
      <radialGradient id="SVGID_7_" cx="76.7644" cy="103.2429" gradientTransform="matrix(1 0 0 2.0255 0 -105.8721)" gradientUnits="userSpaceOnUse" r="6.6172">
        <stop offset="0.0737" stop-color="#F7C02B"/>
        <stop offset="0.7875" stop-color="#F7C02B" stop-opacity="0"/>
      </radialGradient>
      <path d="M73.22,96.06c0.41-3.89,2.11-5.87,5.35-5.87s9.82,4.45,4.32,10.25 c-1.22,1.28-0.69,4.78-1.27,10.05c-0.4,3.57-3.21,3.2-4.49,3.2C71.27,113.69,71.83,109.46,73.22,96.06z" fill="url(#SVGID_7_)"/>
      <radialGradient id="SVGID_8_" cx="102.7368" cy="88.1204" gradientTransform="matrix(0.9769 0.2136 -0.5379 2.46 49.7747 -150.6061)" gradientUnits="userSpaceOnUse" r="5.4789">
        <stop offset="0" stop-color="#F7C02B"/>
        <stop offset="0.7524" stop-color="#F7C02B" stop-opacity="0"/>
      </radialGradient>
      <path d="M99.13,87.48c-0.99-3.79,2.51-16.16,5.74-16.16s0.06,7.04,1.87,26.23 c0.34,3.58-2.75,4.61-4.03,4.61C96.85,102.16,100.41,92.39,99.13,87.48z" fill="url(#SVGID_8_)"/>
      <path d="M109.45,32.23c-0.05,1.92,6.38,17.74,0.28,35.99c-1.05,3.13-1.66,6.29-2.99,13.12 c-1.58,5.7,0.86,19.82-3.76,23.17c4.69,0.7,6.08-4.86,5.95-8.54c0.06-3.64,0.08-10.57,0.76-14.05c1.35-6.89,1.94-9.82,2.9-12.77 C116.7,56.53,115.2,43.39,109.45,32.23z" fill="#EB8F00"/>
      <path d="M97.58,84.59c-0.41-1.88-3.73-0.96-4.58,1.46c-1.18,3.35-0.57,6.74-1.33,9.99 c-0.42,1.9-2.62,5.36-5.98,3.15c-1.58-1.04-3.25-2.98-5.14-0.6c-3.02,4.94,0.4,12.32-1.9,16.39c-0.62,1.1-1.8,1.44-1.8,1.44 c3.53,1.13,5.01-1.34,5.33-4.68c0.35-3.67-0.58-8.43,0.71-11.29c0.14-0.18,0.28-0.26,0.41-0.26c0.74,0,1.5,2.41,4.37,2.41 c0.41,0,0.86-0.05,1.36-0.16c5.31-1,6.2-7.01,6.48-11.48C95.78,86.74,98.15,87.19,97.58,84.59z" fill="#EB8F00"/>
      <path d="M68.31,96.51c-2.26-1.06-4.24,1.14-4.72,3.14c-1.93,5.5,0.83,10.18-0.78,15.76 c-0.79,2.04-1.5,3.21-3.1,3.59c-2.9,0.69-3.82,2.86-2.14,4.27c0.82,0.77,1.92,0.85,3,0.59c12.29-3.03-0.41-23.07,7.77-25.6 c0.09,0,0.6-0.19,2.2,0.36C70.53,98.62,70.53,97.55,68.31,96.51z" fill="#EB8F00"/>
      <path d="M41.48,88.58c-1.13-1.69-2.81-2.33-4.84-1.75c-3.64,1.5-3.99,3.66-3.45,10.99 c0.17,2.38-0.52,6.91-0.52,6.91s3.31-1.5,2.98-12.2c-0.09-3.07,2.61-3.09,4.07-1.39c0.86,1.04,1.03,2.46,1.21,3.8 c0.66,6.6,3,11.32,8.24,11.32c1.67,0.03,4.18-0.92,5.34-1.13c1.16-0.21,1.7-1.33,1.44-2.07c-1.06-3-4.95,0.65-6.78,0.2 c-1.09,0-4.84,0.12-5.7-8.5C43.36,92.76,42.59,90.22,41.48,88.58z" fill="#EB8F00"/>
      <path d="M27.08,79.48c-0.51-0.61-0.95,2-2.13,3.86c-1.56,2.46-3.94,3.17-6.92,2.47 c0.36,1.35,2.24,2.93,5.58,2.25C26.59,87.45,27.08,85.79,27.08,79.48z" fill="#EB8F00"/>
    </g>
    <g>
      <g>
        <g>
          <path d="M48.62,24.6L48.62,24.6c-3.68-0.74-7.65,1.69-8.69,6.85c-1.04,5.16,1.68,8.93,5.36,9.67l0,0 c3.69,0.74,7.65-1.69,8.68-6.84C55.01,29.13,52.34,25.35,48.62,24.6z" fill="#422B0D"/>
          <g id="peepers_123_">
            <path d="M47.62,27.98L47.62,27.98c-1.13-0.85-2.73-0.63-3.59,0.5c-0.67,0.88-0.69,2.09-0.06,3l0,0 c1.13,0.85,2.73,0.63,3.59-0.5C48.22,30.1,48.24,28.89,47.62,27.98z" fill="#896024"/>
          </g>
        </g>
        <g>
          <path d="M77.51,33.94L77.51,33.94c-3.75,0-7.16,3.17-7.16,8.43s3.41,8.42,7.16,8.42l0,0 c3.76,0,7.16-3.17,7.16-8.42S81.31,33.94,77.51,33.94z" fill="#422B0D"/>
          <g id="peepers_122_">
            <path d="M77.2,37.46L77.2,37.46c-1.27-0.61-2.8-0.07-3.42,1.2c-0.48,1-0.26,2.19,0.53,2.95l0,0 c1.27,0.61,2.8,0.07,3.42-1.2C78.21,39.42,78,38.23,77.2,37.46z" fill="#896024"/>
          </g>
        </g>
      </g>
      <path id="mouth_80_" d="M63.18,73.11 c-9.88-1.62-16.9-7.86-20.34-13.86c-0.35-0.6-0.33-1.34,0.05-1.92c0.38-0.59,1.05-0.91,1.69-0.81l0,0 c0.29,0.05,0.57,0.18,0.81,0.38c4,3.44,10.91,8.02,18.89,9.33l0.77,0.06c8.74,0.82,13.48-1.81,18-3.68 c0.29-0.12,1.87-0.64,2.43,0.93c0.23,0.65-0.29,1.59-0.76,2.1c-3.65,4-10.08,8.51-21.01,7.52L63.18,73.11z" fill="#422B0D" stroke="#422B0D" stroke-miterlimit="10" stroke-width="1.0587"/>
    </g>
  </g>
</svg>

<svg viewBox="0 0 128 128" xmlns="http://www.w3.org/2000/svg">
  <defs>
    <radialGradient id="SVGID_1_" cx="64" cy="55.0293" gradientUnits="userSpaceOnUse" r="51.6864">
      <stop offset="0.5" stop-color="#FDE030"/>
      <stop offset="0.9188" stop-color="#F7C02B"/>
      <stop offset="1" stop-color="#F4A223"/>
    </radialGradient>
    <radialGradient id="SVGID_2_" cx="73.818661" cy="46.192493" gradientTransform="matrix(0.9842 0.1772 -0.17 0.9438 0 0)" gradientUnits="userSpaceOnUse" r="54.0921">
      <stop offset="0.5" stop-color="#FDE030"/>
      <stop offset="0.9188" stop-color="#F7C02B"/>
      <stop offset="1" stop-color="#F4A223"/>
    </radialGradient>
    <radialGradient id="SVGID_3_" cx="89.728173" cy="109.86395" gradientTransform="matrix(0.9999 0.006847 -0.0189 0.8615 0 0)" gradientUnits="userSpaceOnUse" r="6.7462">
      <stop offset="0" stop-color="#F7C02B"/>
      <stop offset="0.7524" stop-color="#F7C02B" stop-opacity="0"/>
    </radialGradient>
    <radialGradient id="SVGID_4_" cx="25.394204" cy="67.547065" gradientTransform="matrix(0.9006 0.009367 -0.017 1.1786 0 0)" gradientUnits="userSpaceOnUse" r="5.5946">
      <stop offset="0" stop-color="#F7C02B"/>
      <stop offset="0.7524" stop-color="#F7C02B" stop-opacity="0"/>
    </radialGradient>
    <radialGradient id="SVGID_5_" cx="48.311573" cy="32.278992" gradientTransform="matrix(0.9789 0.2042 -0.5216 2.5004 0 0)" gradientUnits="userSpaceOnUse" r="4.7613">
      <stop offset="0" stop-color="#F7C02B" stop-opacity="0.9706"/>
      <stop offset="0.928" stop-color="#F7C02B" stop-opacity="0"/>
    </radialGradient>
    <radialGradient id="SVGID_6_" cx="62.013559" cy="41.889893" gradientTransform="matrix(0.9999 0.0144 -0.0367 2.554 0 0)" gradientUnits="userSpaceOnUse" r="5.2571">
      <stop offset="0.3068" stop-color="#F7C02B" stop-opacity="0.9706"/>
      <stop offset="1" stop-color="#F7C02B" stop-opacity="0"/>
    </radialGradient>
    <radialGradient id="SVGID_7_" cx="76.7644" cy="50.973288" gradientTransform="matrix(1 0 0 2.0255 0 0)" gradientUnits="userSpaceOnUse" r="6.6172">
      <stop offset="0.0737" stop-color="#F7C02B"/>
      <stop offset="0.7875" stop-color="#F7C02B" stop-opacity="0"/>
    </radialGradient>
    <radialGradient id="SVGID_8_" cx="119.191764" cy="25.469636" gradientTransform="matrix(0.9769 0.2136 -0.5379 2.46 0 0)" gradientUnits="userSpaceOnUse" r="5.4789">
      <stop offset="0" stop-color="#F7C02B"/>
      <stop offset="0.7524" stop-color="#F7C02B" stop-opacity="0"/>
    </radialGradient>
  </defs>
  <path d="M79.23,6.71 C40.06,-6.28 2.19,29.66 15.96,68.34 C19.05,78.29 15.62,80.04 17.32,84.62 C19.35,90.09 25.56,87.58 25.56,87.58 C25.56,87.58 25.58,99.69 27.59,103.36 C28.31,104.67 29.92,105.49 31.38,105.21 C36.46,104.25 35.35,94.87 35.64,92.53 C36.18,88.15 38.85,90.1 39.71,91.14 C40.57,92.18 40.74,93.6 40.92,94.94 C41.75,103.23 45.23,108.55 53.76,105.29 C54.32,105.08 56.17,104.66 55.92,105.74 C55.7,108.77 55.52,114.6 55.65,117.64 C55.78,120.63 56.77,124.8 60.55,123.87 C69.68,121.34 65.03,110.04 65.45,102.55 C65.45,96.35 72.47,97.42 72.47,101.9 C72.47,106.38 70.89,112.53 74.61,115.19 C81.12,119.83 82.54,112.91 82.18,109.61 C82.18,109.61 81.82,101.8 82.89,100.46 C83.96,99.11 84.39,103.49 89.03,102.45 C95.26,101.05 95,94 95.55,90.69 C96.1,87.38 97.96,84.45 99.12,87.78 C100.28,91.11 98.42,95.99 99.12,99.83 C99.82,103.67 101.31,104.79 104,104.55 C108.19,104.18 108.86,99.63 108.92,95.99 C108.98,92.35 109,85.42 109.68,81.94 C111.03,75.05 111.62,72.12 112.58,69.17 C120.98,43.41 106.05,15.45 79.23,6.71 Z" fill="url(#SVGID_1_)"/>
  <path d="M79.23,6.71 C40.06,-6.28 2.19,29.66 15.96,68.34 C19.05,78.29 15.62,80.04 17.32,84.62 C19.35,90.09 25.56,87.58 25.56,87.58 C25.56,87.58 25.58,99.69 27.59,103.36 C28.31,104.67 29.92,105.49 31.38,105.21 C36.46,104.25 35.35,94.87 35.64,92.53 C36.18,88.15 38.85,90.1 39.71,91.14 C40.57,92.18 40.74,93.6 40.92,94.94 C41.75,103.23 45.23,108.55 53.76,105.29 C54.32,105.08 56.17,104.66 55.92,105.74 C55.7,108.77 55.52,114.6 55.65,117.64 C55.78,120.63 56.77,124.8 60.55,123.87 C69.68,121.34 65.03,110.04 65.45,102.55 C65.45,96.35 72.47,97.42 72.47,101.9 C72.47,106.38 70.89,112.53 74.61,115.19 C81.12,119.83 82.54,112.91 82.18,109.61 C82.18,109.61 81.82,101.8 82.89,100.46 C83.96,99.11 84.39,103.49 89.03,102.45 C95.26,101.05 95,94 95.55,90.69 C96.1,87.38 97.96,84.45 99.12,87.78 C100.28,91.11 98.42,95.99 99.12,99.83 C99.82,103.67 101.31,104.79 104,104.55 C108.19,104.18 108.86,99.63 108.92,95.99 C108.98,92.35 109,85.42 109.68,81.94 C111.03,75.05 111.62,72.12 112.58,69.17 C120.98,43.41 106.05,15.45 79.23,6.71 Z" fill="url(#SVGID_2_)"/>
  <path d="M81.76,95.74 C81.13,90.08 84.38,87.5 87.62,87.5 C90.86,87.5 94.25,87.5 93.48,95.74 C93.19,98.87 90.86,101.43 87.62,101.43 C84.38,101.43 82.1,98.86 81.76,95.74 Z" fill="url(#SVGID_3_)"/>
  <path d="M17.1,79.83 C17.21,78.84 17.58,77.57 17.59,76.31 C17.6,74.96 17.25,73.64 17.25,73.64 C18.21,72.13 19.58,71.18 21.1,71.18 C24.02,71.18 26.38,74.66 26.38,78.96 C26.38,83.26 24.02,86.74 21.1,86.74 C19.71,86.74 18.45,85.95 17.51,84.66 C17.51,84.65 16.82,82.48 17.1,79.83 Z" fill="url(#SVGID_4_)"/>
  <path d="M25.57,87.58 C25.56,85.65 24.96,78.96 28.2,78.96 C31.44,78.96 33.11,81.51 33.7,85.97 C34.27,90.32 33.84,96.21 33.68,98.48 C33.34,103.2 30.65,105.13 27.35,102.8 C27.34,102.8 25.62,98.67 25.57,87.58 Z" fill="url(#SVGID_5_)"/>
  <path d="M56.11,104.34 C56.1,102.41 55.94,94.46 59.18,94.46 C62.42,94.46 64.22,95.55 64.81,100.01 C65.38,104.36 66.49,113.23 65.46,116.99 C63.85,122.9 58.27,121.97 56.93,119.82 C55.04,116.81 56.11,104.34 56.11,104.34 Z" fill="url(#SVGID_6_)"/>
  <path d="M73.22,96.06 C73.63,92.17 75.33,90.19 78.57,90.19 C81.81,90.19 88.39,94.64 82.89,100.44 C81.67,101.72 82.2,105.22 81.62,110.49 C81.22,114.06 78.41,113.69 77.13,113.69 C71.27,113.69 71.83,109.46 73.22,96.06 Z" fill="url(#SVGID_7_)"/>
  <path d="M99.13,87.48 C98.14,83.69 101.64,71.32 104.87,71.32 C108.1,71.32 104.93,78.36 106.74,97.55 C107.08,101.13 103.99,102.16 102.71,102.16 C96.85,102.16 100.41,92.39 99.13,87.48 Z" fill="url(#SVGID_8_)"/>
  <path d="M109.45,32.23 C109.4,34.15 115.83,49.97 109.73,68.22 C108.68,71.35 108.07,74.51 106.74,81.34 C105.16,87.04 107.6,101.16 102.98,104.51 C107.67,105.21 109.06,99.65 108.93,95.97 C108.99,92.33 109.01,85.4 109.69,81.92 C111.04,75.03 111.63,72.1 112.59,69.15 C116.7,56.53 115.2,43.39 109.45,32.23 Z" fill="#EB8F00"/>
  <path d="M97.58,84.59 C97.17,82.71 93.85,83.63 93,86.05 C91.82,89.4 92.43,92.79 91.67,96.04 C91.25,97.94 89.05,101.4 85.69,99.19 C84.11,98.15 82.44,96.21 80.55,98.59 C77.53,103.53 80.95,110.91 78.65,114.98 C78.03,116.08 76.85,116.42 76.85,116.42 C80.38,117.55 81.86,115.08 82.18,111.74 C82.53,108.07 81.6,103.31 82.89,100.45 C83.03,100.27 83.17,100.19 83.3,100.19 C84.04,100.19 84.8,102.6 87.67,102.6 C88.08,102.6 88.53,102.55 89.03,102.44 C94.34,101.44 95.23,95.43 95.51,90.96 C95.78,86.74 98.15,87.19 97.58,84.59 Z" fill="#EB8F00"/>
  <path d="M68.31,96.51 C66.05,95.45 64.07,97.65 63.59,99.65 C61.66,105.15 64.42,109.83 62.81,115.41 C62.02,117.45 61.31,118.62 59.71,119 C56.81,119.69 55.89,121.86 57.57,123.27 C58.39,124.04 59.49,124.12 60.57,123.86 C72.86,120.83 60.16,100.79 68.34,98.26 C68.43,98.26 68.94,98.07 70.54,98.62 C70.53,98.62 70.53,97.55 68.31,96.51 Z" fill="#EB8F00"/>
  <path d="M41.48,88.58 C40.35,86.89 38.67,86.25 36.64,86.83 C33,88.33 32.65,90.49 33.19,97.82 C33.36,100.2 32.67,104.73 32.67,104.73 C32.67,104.73 35.98,103.23 35.65,92.53 C35.56,89.46 38.26,89.44 39.72,91.14 C40.58,92.18 40.75,93.6 40.93,94.94 C41.59,101.54 43.93,106.26 49.17,106.26 C50.84,106.29 53.35,105.34 54.51,105.13 C55.67,104.92 56.21,103.8 55.95,103.06 C54.89,100.06 51,103.71 49.17,103.26 C48.08,103.26 44.33,103.38 43.47,94.76 C43.36,92.76 42.59,90.22 41.48,88.58 Z" fill="#EB8F00"/>
  <path d="M27.08,79.48 C26.57,78.87 26.13,81.48 24.95,83.34 C23.39,85.8 21.01,86.51 18.03,85.81 C18.39,87.16 20.27,88.74 23.61,88.06 C26.59,87.45 27.08,85.79 27.08,79.48 Z" fill="#EB8F00"/>
  <path d="M48.62,24.6 L48.62,24.6 C44.94,23.86 40.97,26.29 39.93,31.45 C38.89,36.61 41.61,40.38 45.29,41.12 L45.29,41.12 C48.98,41.86 52.94,39.43 53.97,34.28 C55.01,29.13 52.34,25.35 48.62,24.6 Z" fill="#422B0D"/>
  <path d="M47.62,27.98 L47.62,27.98 C46.49,27.13 44.89,27.35 44.03,28.48 C43.36,29.36 43.34,30.57 43.97,31.48 L43.97,31.48 C45.1,32.33 46.7,32.11 47.56,30.98 C48.22,30.1 48.24,28.89 47.62,27.98 Z" fill="#896024"/>
  <path d="M77.51,33.94 L77.51,33.94 C73.76,33.94 70.35,37.11 70.35,42.37 C70.35,47.63 73.76,50.79 77.51,50.79 L77.51,50.79 C81.27,50.79 84.67,47.62 84.67,42.37 C84.67,37.12 81.31,33.94 77.51,33.94 Z" fill="#422B0D"/>
  <path d="M77.2,37.46 L77.2,37.46 C75.93,36.85 74.4,37.39 73.78,38.66 C73.3,39.66 73.52,40.85 74.31,41.61 L74.31,41.61 C75.58,42.22 77.11,41.68 77.73,40.41 C78.21,39.42 78,38.23 77.2,37.46 Z" fill="#896024"/>
  <path d="M63.18,73.11 C53.3,71.49 46.28,65.25 42.84,59.25 C42.49,58.65 42.51,57.91 42.89,57.33 C43.27,56.74 43.94,56.42 44.58,56.52 L44.58,56.52 C44.87,56.57 45.15,56.7 45.39,56.9 C49.39,60.34 56.3,64.92 64.28,66.23 L65.05,66.29 C73.79,67.11 78.53,64.48 83.05,62.61 C83.34,62.49 84.92,61.97 85.48,63.54 C85.71,64.19 85.19,65.13 84.72,65.64 C81.07,69.64 74.64,74.15 63.71,73.16 L63.18,73.11 Z" fill="#422B0D"/>
  <path d="M63.094,73.632 Q49.166,71.349 42.381,59.513 Q41.649,58.259 42.447,57.04 Q43.26,55.778 44.662,55.997 Q45.256,56.099 45.729,56.493 Q54.564,64.092 64.344,65.704 L65.091,65.762 Q72.709,66.477 81.281,62.787 Q82.329,62.335 82.848,62.121 Q83.519,61.843 84.218,61.915 Q85.509,62.047 85.979,63.362 Q86.411,64.586 85.109,65.999 Q76.992,74.895 63.662,73.687 L63.112,73.635 Z M63.248,72.585 L63.758,72.633 Q76.564,73.793 84.331,65.281 Q85.201,64.337 84.981,63.718 Q84.737,63.032 84.11,62.968 Q83.677,62.924 83.252,63.099 Q82.741,63.311 81.7,63.759 Q72.879,67.556 65.009,66.818 L64.216,66.756 L64.194,66.752 Q54.109,65.097 45.051,57.307 Q44.797,57.094 44.498,57.043 Q43.777,56.93 43.333,57.62 Q42.893,58.291 43.299,58.987 Q49.83,70.378 63.248,72.585 Z" fill="#422B0D"/>
</svg>
